assets/roadMapMobBg.svg

<svg width="360" height="666" viewBox="0 0 360 666" fill="none" xmlns="http://www.w3.org/2000/svg">
<rect width="360" height="666" fill="#007550"/>
<path d="M76.1718 624.312L80.4947 633.964L70.392 635.567L66.9826 621.656L76.1718 624.312Z" fill="#FFC856"/>
<path d="M59.957 627.609L66.9824 621.656L70.3917 635.567L59.957 627.609Z" fill="white"/>
<path d="M75.4858 634.76L70.0645 659.38L61.2778 657.55L75.4858 634.76Z" fill="#001E20"/>
<path d="M43.878 646.865L54.7547 656.191L61.2782 657.549L75.4863 634.759L70.3924 635.567L65.5848 644.519L43.878 646.865Z" fill="white"/>
<path d="M78.3145 629.089L83.3655 633.375L79.9041 632.654L78.3145 629.089Z" fill="#001E20"/>
<path d="M80.4945 633.964L83.3652 633.375L79.9038 632.654L80.4945 633.964Z" fill="#001E20"/>
<path d="M70.3922 635.568L59.9574 627.609L32.4541 648.134L65.5611 644.647L70.3922 635.568Z" fill="#FFC856"/>
<path d="M31.1529 655.28L20.5024 653.062L32.4536 648.135L43.8643 646.937L31.1529 655.28Z" fill="#001E20"/>
<path d="M70.0644 659.379L75.6774 665.74L71.1509 664.798L65.2717 658.381L70.0644 659.379Z" fill="#001E20"/>
<path d="M59.6137 657.204L65.2267 663.564L60.7002 662.621L54.821 656.206L59.6137 657.204Z" fill="#001E20"/>
<rect width="2.25477" height="2.28004" transform="matrix(-0.741042 0.671459 0.620542 0.784172 73.9082 625.884)" fill="#001E20"/>
<g clip-path="url(#clip0)">
<path fill-rule="evenodd" clip-rule="evenodd" d="M336.023 666.763L303.798 342.21L295.972 335.535L327.277 666.763C327.277 666.763 332.571 667.453 336.023 666.763Z" fill="url(#paint0_linear)"/>
<path opacity="0.5" d="M311.624 418.4L305.179 432.211L303.568 413.796L310.243 405.97L311.624 418.4Z" fill="#B17B9D"/>
<path fill-rule="evenodd" clip-rule="evenodd" d="M305.179 413.566L302.187 414.256L255 372.824L290.217 304L294.13 304.691L345 353.259L305.179 413.566Z" fill="url(#paint1_linear)"/>
<path fill-rule="evenodd" clip-rule="evenodd" d="M302.187 414.256L255 372.824L290.217 304L341.547 352.338L302.187 414.256Z" fill="url(#paint2_linear)"/>
<path d="M314.156 381.11L319.22 372.823L301.727 350.035L282.622 346.122V338.526L271.343 350.035L280.55 363.386L282.161 355.79L297.814 358.092L314.156 381.11Z" fill="#5E3E51"/>
<path d="M345 353.258L341.547 352.338L290.217 304L294.13 304.691L345 353.258Z" fill="#FFFF9D"/>
</g>
<defs>
<linearGradient id="paint0_linear" x1="316.12" y1="667.127" x2="316.12" y2="335.592" gradientUnits="userSpaceOnUse">
<stop stop-color="#796F8D"/>
<stop offset="1" stop-color="#9F9AA2"/>
</linearGradient>
<linearGradient id="paint1_linear" x1="312.102" y1="411.761" x2="285.737" y2="305.116" gradientUnits="userSpaceOnUse">
<stop stop-color="#C47000"/>
<stop offset="0.9888" stop-color="#FF9A4A"/>
</linearGradient>
<linearGradient id="paint2_linear" x1="310.531" y1="412.149" x2="284.166" y2="305.504" gradientUnits="userSpaceOnUse">
<stop stop-color="#FFBA00"/>
<stop offset="0.9888" stop-color="#FFE856"/>
</linearGradient>
<clipPath id="clip0">
<rect width="90" height="362" fill="white" transform="translate(255 304)"/>
</clipPath>
</defs>
</svg>

<svg xmlns="http://www.w3.org/2000/svg" width="360" height="666" fill="none" xmlns:v="https://vecta.io/nano"><path fill="#007550" d="M0 0h360v666H0z"/><path d="M76.172 624.312l4.323 9.652-10.103 1.603-3.41-13.91 9.19 2.656z" fill="#ffc856"/><path d="M59.957 627.61l7.025-5.953 3.41 13.91-10.435-7.958z" fill="#fff"/><path d="M75.486 634.76l-5.42 24.62-8.787-1.83 14.208-22.8z" fill="#001e20"/><path d="M43.878 646.865l10.877 9.326 6.523 1.358 14.208-22.8-5.094.808-4.808 8.952-21.707 2.346z" fill="#fff"/><g fill="#001e20"><path d="M78.315 629.09l5.05 4.286-3.46-.72-1.6-3.565z"/><path d="M80.495 633.964l2.87-.59-3.46-.72.59 1.3z"/></g><path d="M70.392 635.568l-10.435-7.96-27.503 20.525 33.107-3.487 4.83-9.08z" fill="#ffc856"/><path d="M31.153 655.28l-10.65-2.218 11.95-4.927 11.4-1.198-12.7 8.343zm38.91 4.1l5.613 6.36-4.527-.942-5.88-6.417 4.793.998zm-10.45-2.176l5.613 6.36-4.526-.943-5.88-6.415 4.793.998zm14.294-31.32l-1.67 1.514 1.415 1.788 1.67-1.514z" fill="#001e20"/><g clip-path="url(#D)"><path fill-rule="evenodd" d="M336.023 666.763L303.798 342.2l-7.826-6.675 31.305 331.228s5.294.7 8.746 0z" fill="url(#A)"/><path opacity=".5" d="M311.624 418.4l-6.445 13.81-1.61-18.415 6.675-7.826 1.38 12.43z" fill="#b17b9d"/><g fill-rule="evenodd"><path d="M305.18 413.566l-2.992.7L255 372.824 290.217 304l3.913.69L345 353.26l-39.82 60.307z" fill="url(#B)"/><path d="M302.187 414.256L255 372.824 290.217 304l51.33 48.338-39.36 61.918z" fill="url(#C)"/></g><path d="M314.156 381.1l5.064-8.287-17.493-22.788-19.105-3.913v-7.596l-11.28 11.51 9.207 13.35 1.61-7.596 15.653 2.302 16.342 23.018z" fill="#5e3e51"/><path d="M345 353.258l-3.453-.92L290.217 304l3.913.69L345 353.258z" fill="#ffff9d"/></g><defs><linearGradient id="A" x1="316.12" y1="667.127" x2="316.12" y2="335.592" gradientUnits="userSpaceOnUse"><stop stop-color="#796f8d"/><stop offset="1" stop-color="#9f9aa2"/></linearGradient><linearGradient id="B" x1="312.102" y1="411.761" x2="285.737" y2="305.116" gradientUnits="userSpaceOnUse"><stop stop-color="#c47000"/><stop offset=".989" stop-color="#ff9a4a"/></linearGradient><linearGradient id="C" x1="310.531" y1="412.149" x2="284.166" y2="305.504" gradientUnits="userSpaceOnUse"><stop stop-color="#ffba00"/><stop offset=".989" stop-color="#ffe856"/></linearGradient><clipPath id="D"><path fill="#fff" transform="translate(255 304)" d="M0 0h90v362H0z"/></clipPath></defs></svg>
